public/logo.svg

<svg xmlns="http://www.w3.org/2000/svg" width="1311" height="548" fill="none">
  
  
    <path
      fill="#000000"
      d="M1277.45 132.743c-111.26 11.541-204.35 62.538-270.95 148.925-53.491 69.388-88.793 162.626-97.42 256.66h131.19c5.12-40.536 20.9-113.961 69.64-177.209 34.47-44.743 78.72-74.647 132.04-89.514M227.872 548C87.202 548 4.953 459.737 4.953 315.445V182.667C4.953 99.776 4.184 56.796.341 0h102.235c-3.074 55.26-3.843 101.311-3.843 182.667V326.19c0 101.311 60.726 165.014 156.812 165.014 96.086 0 146.051-55.26 154.506-144.291 3.075-22.258 3.844-51.423 3.844-76.751 0-76.75-6.15-173.456-16.911-270.162h58.42l-.769 309.305C453.867 459.737 369.311 548 227.872 548ZM676.018 537.255H513.825c3.075-52.191 4.612-94.404 4.612-183.434V183.434c0-88.263-1.537-131.243-4.612-183.434h162.193c118.378 0 188.329 44.515 188.329 123.569 0 64.47-44.584 112.823-127.603 126.638 100.698 9.21 149.894 56.028 149.894 133.546 0 94.404-78.406 153.502-210.62 153.502Zm-5.381-303.165c59.189 0 102.236-42.213 102.236-103.614 0-61.4-39.203-94.403-101.467-94.403h-61.495V234.09h60.726Zm2.306 265.557c74.563 0 118.378-43.748 118.378-116.661 0-72.913-44.584-111.289-114.534-111.289h-66.876v227.95h63.032ZM1277.42 132.458H896.297l32.74-130.277h381.123l-32.74 130.277Z"
    />
  
</svg>

<svg width="1311" height="548" viewBox="0 0 1311 548" fill="none" xmlns="http://www.w3.org/2000/svg">
<path d="M102.576 0C99.5022 55.26 98.7334 101.311 98.7334 182.667V326.19C98.7336 427.501 159.459 491.204 255.545 491.204C351.631 491.204 401.596 435.944 410.051 346.913C413.126 324.655 413.895 295.49 413.895 270.162C413.895 193.412 407.745 96.706 396.984 0H455.404L454.635 309.305C453.867 459.737 369.311 548 227.872 548C87.2022 548 4.95324 459.737 4.95312 315.445V182.667C4.95312 99.776 4.18382 56.796 0.34082 0H102.576ZM1241.95 271.605C1188.63 286.472 1144.38 316.376 1109.91 361.119C1061.17 424.367 1045.39 497.792 1040.27 538.328H909.08C917.707 444.294 953.009 351.056 1006.5 281.668C1073.1 195.281 1166.19 144.284 1277.45 132.743L1241.95 271.605ZM676.018 0C794.396 0 864.347 44.5153 864.347 123.569C864.347 188.039 819.763 236.392 736.744 250.207C837.442 259.417 886.638 306.235 886.638 383.753C886.638 478.157 808.232 537.255 676.018 537.255H513.825C516.9 485.064 518.437 442.851 518.438 353.821V183.434C518.437 95.1709 516.9 52.1909 513.825 0H676.018ZM609.911 499.647H672.943C747.506 499.647 791.321 455.899 791.321 382.986C791.321 310.073 746.737 271.697 676.787 271.697H609.911V499.647ZM609.911 234.09H670.637C729.826 234.09 772.873 191.877 772.873 130.476C772.873 69.0759 733.67 36.0733 671.406 36.0732H609.911V234.09ZM1277.42 132.458H896.297L929.037 2.18066H1310.16L1277.42 132.458Z" fill="black"/>
</svg>
